public/Icons/tg.svg

<svg width="24" height="24" viewBox="0 0 24 24" fill="none" xmlns="http://www.w3.org/2000/svg">
<path fill-rule="evenodd" clip-rule="evenodd" d="M4 0C1.79086 0 0 1.79086 0 4V20C0 22.2091 1.79086 24 4 24H20C22.2091 24 24 22.2091 24 20V4C24 1.79086 22.2091 0 20 0H4ZM17.6192 7.87282C17.7207 6.72313 16.5067 7.19657 16.5067 7.19657C15.6077 7.56874 14.6799 7.94696 13.7427 8.32927C10.8475 9.51028 7.85684 10.7302 5.30884 11.9309C3.92603 12.4381 4.7354 12.9453 4.7354 12.9453L6.9279 13.6219C7.93947 13.9263 8.47915 13.5878 8.47915 13.5878L13.201 10.3753C14.8873 9.22563 14.4826 10.1725 14.0779 10.5781L10.537 13.96C9.99697 14.4334 10.267 14.8391 10.5032 15.0422C11.1719 15.6321 12.8163 16.7114 13.5355 17.1834C13.7231 17.3066 13.8478 17.3884 13.8757 17.4094C14.0445 17.5447 14.9551 18.1531 15.562 18.0181C16.1692 17.8828 16.2367 17.105 16.2367 17.105L17.046 11.7956C17.1672 10.8768 17.3059 9.99344 17.4169 9.2869C17.5224 8.61535 17.6029 8.10353 17.6192 7.87282Z" fill="#F8F7F3"/>
</svg>

<svg width="24" height="24" fill="none" xmlns="http://www.w3.org/2000/svg"><path fill-rule="evenodd" clip-rule="evenodd" d="M4 0a4 4 0 0 0-4 4v16a4 4 0 0 0 4 4h16a4 4 0 0 0 4-4V4a4 4 0 0 0-4-4H4Zm13.62 7.873c.1-1.15-1.113-.676-1.113-.676-.9.372-1.827.75-2.764 1.132-2.896 1.181-5.886 2.401-8.434 3.602-1.383.507-.574 1.014-.574 1.014l2.193.677c1.011.304 1.551-.034 1.551-.034l4.722-3.213c1.686-1.15 1.282-.203.877.203l-3.541 3.382c-.54.473-.27.88-.034 1.082.669.59 2.313 1.67 3.033 2.141.187.124.312.205.34.226.168.136 1.08.744 1.686.61.607-.136.675-.914.675-.914l.809-5.31c.121-.918.26-1.802.37-2.508.106-.672.187-1.183.203-1.414Z" fill="#F8F7F3"/></svg>
